!!!COM: Bach, Johann Sebastian
!!!OPR: Joh. Seb. Bachs vierstimmige Choralges‰nge
!!!XEN: Four-part Chorales
!!!OTL: 160. Sollt' ich meinem Gott nicht singen
!!!SCT: BWV 413
!!!SCA: Thematisch-systematisches Verzeichnis der musikalischen Werke Johann Sebastian Bach: Bach-Werke-Verzeichnis (Schmieder)
!!!YOR: Bach Gesellschaft Edition xxxix
!!!ENC: Steven Rasmussen
!!!CDT: 1685/3//-1750/7/28/
!!!OCY: Deutschland
!!!YEC: Copyright (c) 1994, 2000 Center for Computer Assisted Research in the Humanities
!!!YEM: Rights to all derivative editions reserved
!!!YEN: United States of America
**kern	**silbe	**kern	**silbe	**kern	**silbe	**kern	**silbe
*I:[SOPRANO]	*I:[SOPRANO]	*I:[ALTO]	*I:[ALTO]	*I:[TENORE]	*I:[TENORE]	*I:[BASSO]	*I:[BASSO]
*>[A,A,B]	*	*>[A,A,B]	*	*>[A,A,B]	*	*>[A,A,B]	*
*>A	*	*>A	*	*>A	*	*>A	*
*clefG2	*	*clefG2	*	*clefGv2	*	*clefF4	*
*k[b-]	*	*k[b-]	*	*k[b-]	*	*k[b-]	*
*F:	*	*F:	*	*F:	*	*F:	*
*M3/4	*	*M3/4	*	*M3/4	*	*M3/4	*
=1-	=1-	=1-	=1-	=1-	=1-	=1-	=1-
4.d	Sollt'Denn	4A	Sollt'Denn	4.F	Sollt'Denn	4D	.
.	.	8dL	ichich	.	.	4DD	.
8e	.	8c#	.	8G	.	.	.
8fL	ichich	8d	.	[4A	ichich	4D	.
8gJ	.	8eJ	.	.	.	.	.
=2	=2	=2	=2	=2	=2	=2	=2
2a	mei-seh'	8fL	.	4A]	.	8DL	mei-seh'
.	.	8e	.	.	.	8C#	.
.	.	8f	.	4d	mei-seh'	8D	.
.	.	8gJ	.	.	.	8EJ	.
4dd	-nemin	4a	.	8dL	-nemin	8FL	-nemin
.	.	.	.	8eJ	.	8GJ	.
=3	=3	=3	=3	=3	=3	=3	=3
4dd	Gottal-	4a	.	4f	.	4A	.
4ee	.	4b-	.	4g	.	4G	.
4cc#	nicht-len	4a	.	8eL	.	4A	.
.	.	.	.	8gJ	.	.	.
=4	=4	=4	=4	=4	=4	=4	=4
2dd	sin-Din-	2a	.	4g	.	2D	.
.	.	.	.	8fL	.	.	.
.	.	.	.	8eJ	.	.	.
4dd;	-gen?-gen,	4a;	.	4f;	.	4DD;	.
=5	=5	=5	=5	=5	=5	=5	=5
2ff	sollt'wie	2a	.	2d	.	8DL	.
.	.	.	.	.	.	8E	.
.	.	.	.	.	.	8F	.
.	.	.	.	.	.	8GJ	.
4ee	ichso	4a	.	[4c	ichso	8AL	ichso
.	.	.	.	.	.	8AAJ	.
=6	=6	=6	=6	=6	=6	=6	=6
2dd	ihmgut	2f	.	4c]	ihmgut	8BB-L	ihmgut
.	.	.	.	.	.	8C	.
.	.	.	.	4B-	nichter's	8D	.
.	.	.	.	.	.	8EJ	.
4cc	nichter's	4f	.	8B-L	.	8FL	nichter's
.	.	.	.	8AJ	.	8FFJ	.
=7	=7	=7	=7	=7	=7	=7	=7
8ddL	dank-mit	4f	.	8B-L	.	8BB-L	.
8ccJ	.	.	.	8cJ	.	8AAJ	.
2b-	-barmir	8fL	.	4d	.	4GG	.
.	.	8g	.	.	.	.	.
.	.	8f	.	4c	.	4C	.
.	.	8eJ	.	.	.	.	.
=8	=8	=8	=8	=8	=8	=8	=8
2.a;/xx	sein?meint.	2.f;/xx	.	2.c;\xx	.	2.FF;/xx	.
=9:|!	=9:|!	=9:|!	=9:|!	=9:|!	=9:|!	=9:|!	=9:|!
*>B	*	*>B	*	*>B	*	*>B	*
2a	Ist	2f	.	2d	.	4D	.
.	.	.	.	.	.	4d	.
8aL	doch	4f	.	4d	.	8cL	.
8b-J	.	.	.	.	.	8B-J	.
=10	=10	=10	=10	=10	=10	=10	=10
2cc	nichts,	8fL	.	2c	.	8AL	.
.	.	8g	.	.	.	8AA	.
.	.	8f	.	.	.	8BB-	.
.	.	8eJ	.	.	.	8CJ	.
4f	als	4f	.	4A	.	8DL	.
.	.	.	.	.	.	8CJ	.
=11	=11	=11	=11	=11	=11	=11	=11
2b-	lau-	2f	.	4d	.	8DL	.
.	.	.	.	.	.	8E	.
.	.	.	.	2c	.	8F	.
.	.	.	.	.	.	8GJ	.
4a	-ter	4f	.	.	.	8AL	.
.	.	.	.	.	.	8B-J	.
=12	=12	=12	=12	=12	=12	=12	=12
2g	Lie-	4f	.	2c	.	2c	.
.	.	8eL	.	.	.	.	.
.	.	8dJ	.	.	.	.	.
4g;	-ben,	4e;	.	4c;	.	4C;	.
=13	=13	=13	=13	=13	=13	=13	=13
2g	das	4e	.	4c	.	4c	.
.	.	4d	.	4d	.	8B-L	.
.	.	.	.	.	.	8AJ	.
4a	sein	4d	.	[4A	sein	8GL	sein
.	.	.	.	.	.	8F#J	.
=14	=14	=14	=14	=14	=14	=14	=14
2b-	treu-	4d	treu-	4A]	.	8GL	treu-
.	.	.	.	.	.	8F	.
.	.	8gL	.	4G	treu-	8E-	.
.	.	8f#J	.	.	.	8DJ	.
4cc	-es	[4g	-es	8cL	-es	8E-L	-es
.	.	.	.	8dJ	.	8DJ	.
=15	=15	=15	=15	=15	=15	=15	=15
4b-	Her-	4g]	.	8e-L	Her-	8CL	.
.	.	.	.	8d	.	8BB-J	.
4a	.	4g	Her-	8e-	.	4C	.
.	.	.	.	8cJ	.	.	.
4b-	-ze	4f#	-ze	8AL	-ze	4D	.
.	.	.	.	8dJ	.	.	.
=16	=16	=16	=16	=16	=16	=16	=16
2.g;	regt,	2.d;	.	2.B-;	.	2.GG;	.
=17	=17	=17	=17	=17	=17	=17	=17
2a	das	8fL	.	2d	.	8DL	.
.	.	8e	.	.	.	8C#	.
.	.	8f	.	.	.	8D	.
.	.	8gJ	.	.	.	8EJ	.
8aL	ohn'	8dL	.	4d	.	8FL	.
8b-J	.	8fJ	.	.	.	8DJ	.
=18	=18	=18	=18	=18	=18	=18	=18
2cc	En-	8gL	.	2c	.	8EL	.
.	.	8e	.	.	.	8C	.
.	.	8f	.	.	.	8D	.
.	.	8gJ	.	.	.	8EJ	.
4a	-de	8aL	.	4c	.	8FL	.
.	.	8gJ	.	.	.	8EJ	.
=19	=19	=19	=19	=19	=19	=19	=19
4b-	hebt	2f	.	4d	.	8DL	.
.	.	.	.	.	.	8EJ	.
2a	und	.	.	2c	.	8FL	.
.	.	.	.	.	.	8G	.
.	.	4f	.	.	.	8A	.
.	.	.	.	.	.	8B-J	.
=20	=20	=20	=20	=20	=20	=20	=20
2.g;	tr√§gt,	(4f	.	2.c;	.	2.c;	.
.	.	2e;)	.	.	.	.	.
=21	=21	=21	=21	=21	=21	=21	=21
2f	die	4f	.	4.c	.	8AL	.
.	.	.	.	.	.	8B-	.
.	.	2c	.	.	.	8A	.
.	.	.	.	8B-	.	8GJ	.
4f	in	.	.	8AL	.	8FL	.
.	.	.	.	8GJ	.	8EJ	.
=22	=22	=22	=22	=22	=22	=22	=22
4f	sei-	4d	.	2A	.	8DL	.
.	.	.	.	.	.	8E	.
4e	.	4e	.	.	.	8D	.
.	.	.	.	.	.	8CJ	.
4f	-nem	8dL	.	4A	.	8BB-L	.
.	.	8cJ	.	.	.	8AAJ	.
=23	=23	=23	=23	=23	=23	=23	=23
4g	Dienst	4d	.	4G	.	8BB-L	.
.	.	.	.	.	.	8GG	.
4f	.	8cL	.	4A	.	8C	.
.	.	8dJ	.	.	.	8BB-J	.
4g	sich	4e	.	4B-	.	8AAL	.
.	.	.	.	.	.	8GGJ	.
=24	=24	=24	=24	=24	=24	=24	=24
2a	√º-	2f	.	2c	.	2FF	.
4a;	-ben.	4f;	.	4c;	.	4FF;	.
=25	=25	=25	=25	=25	=25	=25	=25
2a	Al-	2f	.	2c	.	8FFL	Al-
.	.	.	.	.	.	8AAJ	.
.	.	.	.	.	.	8CL	-les
.	.	.	.	.	.	[8FJ	.
4g	-les	4g	.	4c	.	8FL]	.
.	.	.	.	.	.	8EJ	.
=26	=26	=26	=26	=26	=26	=26	=26
2a	Ding	4g	.	2c	.	8FL	Ding
.	.	.	.	.	.	8G	.
.	.	4f	.	.	.	8A	.
.	.	.	.	.	.	8B-J	.
4g	w√§hrt	4e	.	4c	.	8cL	.
.	.	.	.	.	.	8CJ	.
=27	=27	=27	=27	=27	=27	=27	=27
4a	sei-	2f	.	4c	.	8FL	.
.	.	.	.	.	.	8E	.
2bn	-ne	.	.	2d	.	8D	.
.	.	.	.	.	.	8GJ	.
.	.	4g	.	.	.	8FL	.
.	.	.	.	.	.	8GJ	.
=28	=28	=28	=28	=28	=28	=28	=28
2.cc;	Zeit,	2.g;	.	2.e;	.	2.C;	.
=29	=29	=29	=29	=29	=29	=29	=29
2dd	Got-	4g	.	4B-	Got-	8GGL	Got-
.	.	.	.	.	.	8G	.
.	.	2a	.	4f	-tes	8F	.
.	.	.	.	.	.	8EJ	.
4ee	-tes	.	.	[4e	Lieb'	8DL	-tes
.	.	.	.	.	.	8C#J	.
=30	=30	=30	=30	=30	=30	=30	=30
4.ff	Lieb'	4.a	.	4e]	.	8DL	Lieb'
.	.	.	.	.	.	8F	.
.	.	.	.	8dL	.	8G	.
8ee	.	8g	.	8c#J	.	8AJ	.
4dd	in	[4f	in	8dL	in	8B-L	.
.	.	.	.	8cnJ	.	8AJ	.
=31	=31	=31	=31	=31	=31	=31	=31
4dd	E-	4f]	.	2B-	E-	8GL	.
.	.	.	.	.	.	8F	.
4ee	.	4e	E-	.	.	8G	.
.	.	.	.	.	.	8EJ	.
4cc#	-wig-	8eL	-wig-	4A	-wig-	8AL	.
.	.	8gJ	.	.	.	8AAJ	.
=32	=32	=32	=32	=32	=32	=32	=32
2.dd;	-keit.	2.f#;	-keit.	2.A;	-keit.	2.D;	.
==|!	==|!	==|!	==|!	==|!	==|!	==|!	==|!
*-	*-	*-	*-	*-	*-	*-	*-
!!!RWG: Key is interpreted using the Humdrum key tool.
!!!END: 1994/07/29
!!!EMD: Converted from MuseData to Humdrum Dec 19, 2000, by Andreas Kornstaedt using muse2kern.
!!!EED: Craig Stuart Sapp
!!!EEV: 2024/03/31
!!!ONB: Some non-unicode characters
